icons/outline/filter-2-edit.svg

<svg width="24" height="24" viewBox="0 0 24 24" fill="none" xmlns="http://www.w3.org/2000/svg">
<path d="M4 6H20" stroke="black" stroke-width="2" stroke-linecap="round" stroke-linejoin="round"/>
<path d="M6 12H17" stroke="black" stroke-width="2" stroke-linecap="round" stroke-linejoin="round"/>
<path d="M9 18H11" stroke="black" stroke-width="2" stroke-linecap="round" stroke-linejoin="round"/>
<path d="M18.42 15.61C18.615 15.415 18.8465 15.2603 19.1013 15.1548C19.3561 15.0492 19.6292 14.9949 19.905 14.9949C20.1808 14.9949 20.4539 15.0492 20.7087 15.1548C20.9635 15.2603 21.195 15.415 21.39 15.61C21.585 15.805 21.7397 16.0365 21.8452 16.2913C21.9508 16.5461 22.0051 16.8192 22.0051 17.095C22.0051 17.3708 21.9508 17.6439 21.8452 17.8987C21.7397 18.1535 21.585 18.385 21.39 18.58L18 22H15V19L18.42 15.61Z" stroke="black" stroke-width="2" stroke-linecap="round" stroke-linejoin="round"/>
</svg>

<!--
category: Sytem
-->
<svg
  xmlns="http://www.w3.org/2000/svg"
  width="24"
  height="24"
  viewBox="0 0 24 24"
  fill="none"
  stroke="currentColor"
  stroke-width="2"
  stroke-linecap="round"
  stroke-linejoin="round"
>
  <path d="M4 6h16" stroke="black" stroke-width="2" stroke-linecap="round" stroke-linejoin="round" />
  <path d="M6 12h11" stroke="black" stroke-width="2" stroke-linecap="round" stroke-linejoin="round" />
  <path d="M9 18h2" stroke="black" stroke-width="2" stroke-linecap="round" stroke-linejoin="round" />
  <path d="M18.42 15.61c.195 -.195 .426 -.35 .681 -.455c.255 -.106 .528 -.16 .804 -.16c.276 0 .549 .054 .804 .16c.255 .106 .486 .26 .681 .455c.195 .195 .35 .427 .455 .681c.106 .255 .16 .528 .16 .804c0 .276 -.054 .549 -.16 .804c-.105 .255 -.26 .486 -.455 .681l-3.39 3.42h-3v-3l3.42 -3.39z" stroke="black" stroke-width="2" stroke-linecap="round" stroke-linejoin="round" />
</svg>
